X: 562
T: Dil Yâresini Andıracak...
C: Şevki Bey
O: Turkey
F: http://compmusic.upf.edu/node/140
N: hicaz--sarki--aksak--dil_yaresini--sevki_bey
N: makam= hicaz
N: form= sarki
N: usul= aksak = 9/8
M: 9/8
L: 1/16
K: C _7/8B ^f ^c 
Q: 1/4=116
%%MIDI tuningsystem comma53
d2cB c2BA B2AG A2B2 c2 | d2 efag =feed dcd2 e2^f2  | 
w:  ARANAĞME  |   | 
g2=fe f2ed e2dc dcBA G2 | AB cde2 dccB BAA2 B2c2  | 
w:   |   | 
d2cB c2BA B2AG A2B2 c2 | d2 efag =feed dcd2 e2^f2  | 
w:  ARANAĞME  |   | 
g2=fe f2ed e2dc dcBA G2 | AB cde2 dccB BAA6  | 
w:   |   | 
A4 d3e e8-e2 | e2 edg2 =fee3aag fed2  | \
w:  *  Dil  *  yâ  |  *  *  *  re si *  ni   | 
=c3/2_2/4e/dc c_3/4BBA A8 z2 | 
w:  an *  *  *  dı *  ra *  cak   | 
fg fef2 g2f2 gfe4a2  | a3/2^g/=fg fedf e4 efed cB | 
w:  yâ *  *  *  re  bu lun  |  *  *  *  *  *  *  *  *  maz   SAZ  | 
A4d3ee8-e2  | e2ed g2=fe e3a agfe d2 | \
w:  *  Dil  *  yâ  |  *  *  *  re si *  ni   | 
=c3/2_2/4e/ dcc_3/4B BAA8z2  | 
w:  an *  *  *  dı *  ra *  cak   | 
fgfe f2g2 f2gf e4 a2 | a3/2^g/ =fgfe dfe4ef edcd  | 
w:  yâ *  *  *  re  bu lun  |  *  *  *  *  *  *  *  *  maz   SAZ  | 
e4 d3e f2ed a4 gf | f2 efge ed=f4ef efef  | 
w:  *  Dün *  yâ  |  *  *  *  da  *  gö *  nül   | 
g2ag =fedc d8-d2 | cd cBA2 d2cd cBA4e=f  | 
w:  yâ *  *  re *  si *  ne   |  ça *  *  *  re  bu lun  | 
eddc cBBA A4 e=fed cd | e4d3ef2 eda4gf  | 
w:  *  *  *  *  *  *  *  *  maz   SAZ  |  *  Dün *  yâ  | 
f2ef geed =f4 efef ef | g2 ag=fe dcd8-d2  | 
w:  *  *  *  da  *  gö *  nül   |  yâ *  *  re *  si *  ne   | 
cdcB A2d2 cdcB A4 e=f | ed dccB BAA4a2 agfg  | 
w:  ça *  *  *  re  bu lun  |  *  *  *  *  *  *  *  *  maz   SAZ  | 
a4 g3a a4 =b2a2 g2 | f3ee2 ed=c'4c'=b baag  | \
w:  *  Her  *  der  |  *  *  din_ o *  lur   | 
(3aga=bg (3fefge d8-d2 | 
w:  ça *  *  *  *  re *  *  si  *  meş  | 
fg fef2 g2f2 gfe4a2  | a3/2^g/=fg fedf e4 efed cd | 
w:  hur  *  *  *  *  me sel  |  *  *  *  *  *  *  *  *  dir   SAZ  | 
e4d3ef2 eda4gf  | f2ef geed =f4 efef ef | 
w:  *  Dün *  yâ  |  *  *  *  da  *  gö *  nül   | 
g2 ag=fe dcd8-d2  | cdcB A2d2 cdcB A4 e=f | 
w:  yâ *  *  re *  si *  ne   |  ça *  *  *  re  bu lun  | 
ed dccB BAA4e=f edcd  | e4 d3e f2ed a4 gf | 
w:  *  *  *  *  *  *  *  *  maz   SAZ  |  *  Dün *  yâ  | 
f2 efge ed=f4ef efef  | g2ag =fedc d8-d2 | 
w:  *  *  *  da  *  gö *  nül   |  yâ *  *  re *  si *  ne   | 
cd cBA2 d2cd cBA4e=f  | eddc cBBA A4 |
w:  ça *  *  *  re  bu lun  |  *  *  *  *  *  *  *  *  maz    | 


